style/elvis/src/icons/svg/src/subtract-circle.svg

<svg width="24" height="25" viewBox="0 0 24 25" fill="none" xmlns="http://www.w3.org/2000/svg">
<path d="M7.5 12.9023C7.086 12.9023 6.75 12.5663 6.75 12.1523C6.75 11.7383 7.086 11.4023 7.5 11.4023H16.5C16.914 11.4023 17.25 11.7383 17.25 12.1523C17.25 12.5663 16.914 12.9023 16.5 12.9023H7.5Z" fill="black"/>
<path d="M12 24.1669C5.383 24.1669 0 18.7778 0 12.1532C0 5.52858 5.383 0.139404 12 0.139404C18.617 0.139404 24 5.52858 24 12.1532C24 18.7778 18.617 24.1669 12 24.1669ZM12 1.64112C6.21 1.64112 1.5 6.35653 1.5 12.1532C1.5 17.9498 6.21 22.6652 12 22.6652C17.79 22.6652 22.5 17.9498 22.5 12.1532C22.5 6.35653 17.79 1.64112 12 1.64112Z" fill="black"/>
</svg>

<svg width="24" height="25" fill="none" xmlns="http://www.w3.org/2000/svg"><path d="M7.5 12.902a.75.75 0 010-1.5h9a.75.75 0 010 1.5h-9z" fill="#1B314B"/><path d="M12 24.167c-6.617 0-12-5.39-12-12.014S5.383.14 12 .14s12 5.39 12 12.014c0 6.625-5.383 12.014-12 12.014zM12 1.64c-5.79 0-10.5 4.716-10.5 10.512 0 5.797 4.71 10.512 10.5 10.512s10.5-4.715 10.5-10.512C22.5 6.356 17.79 1.64 12 1.64z" fill="#1B314B"/></svg>
